img/logo-white.svg

<svg viewBox="0 0 168 56" fill="none" xmlns="http://www.w3.org/2000/svg">
<path d="M51.8 0H162.4C163.885 0 165.31 0.589998 166.36 1.6402C167.41 2.69041 168 4.11479 168 5.6V50.4C168 51.8852 167.41 53.3096 166.36 54.3598C165.31 55.41 163.885 56 162.4 56H51.8V0Z" fill="#0C8543"/>
<path d="M70.4942 28C72.3301 27.8972 74.1378 28.4862 75.5608 29.6506C76.1701 30.1893 76.6526 30.8561 76.9736 31.6034C77.2945 32.3506 77.4461 33.1597 77.4172 33.9724C77.4493 34.7842 77.2998 35.593 76.9796 36.3397C76.6594 37.0864 76.1766 37.7522 75.5664 38.2886C74.1365 39.4426 72.3287 40.0239 70.4942 39.9196H67.3414V44.0678L69.3448 44.4528V46.6998H61.6V44.4528L63.5908 44.0678V30.646L61.6 30.2666V28.0056H70.4942V28ZM67.3414 37.0286H70.4942C70.9287 37.0616 71.3652 37.0026 71.7753 36.8555C72.1854 36.7083 72.5599 36.4763 72.8742 36.1746C73.4162 35.5822 73.7029 34.8 73.6722 33.9976C73.7027 33.1801 73.4169 32.3824 72.8742 31.7702C72.5641 31.4611 72.1909 31.2224 71.7802 31.0704C71.3695 30.9185 70.9309 30.8568 70.4942 30.8896H67.3414V37.0286ZM87.4146 46.6998C87.3113 46.4675 87.221 46.2296 87.1444 45.9872C87.0681 45.7456 87.0082 45.4991 86.9652 45.2494C86.5125 45.7691 85.9603 46.1927 85.3412 46.4954C84.6583 46.822 83.9085 46.9845 83.1516 46.97C81.9678 47.0323 80.8058 46.634 79.9092 45.8584C79.5041 45.4698 79.1873 44.9987 78.98 44.4769C78.7728 43.9552 78.68 43.3951 78.708 42.8344C78.685 42.2387 78.8174 41.6472 79.092 41.118C79.3667 40.5888 79.7742 40.1402 80.2746 39.816C81.6693 39.0172 83.2683 38.6466 84.8722 38.7506H86.786V37.3898C86.8033 37.1048 86.7608 36.8193 86.6612 36.5517C86.5616 36.2841 86.4072 36.0402 86.2078 35.8358C85.7323 35.4361 85.1193 35.2381 84.4998 35.2842C84.1139 35.2785 83.7292 35.328 83.3574 35.4312C83.0717 35.5081 82.799 35.627 82.5482 35.784L82.3032 37.2666H79.478L79.4906 34.1866C80.224 33.7 81.0156 33.3072 81.8468 33.0176C82.7777 32.6934 83.7577 32.5329 84.7434 32.543C86.2461 32.4716 87.7281 32.9162 88.9434 33.803C89.4793 34.2319 89.9051 34.7824 90.1854 35.409C90.4656 36.0355 90.5923 36.7199 90.5548 37.4052V43.1452C90.5548 43.359 90.5548 43.5601 90.5548 43.7486C90.5584 43.9291 90.5734 44.1091 90.5996 44.2876L91.742 44.4416V46.6998H87.4146ZM84.1652 44.1952C84.7008 44.2022 85.2298 44.0766 85.7052 43.8298C86.1337 43.6151 86.504 43.3 86.7846 42.9114V40.7918H84.8722C84.2195 40.7452 83.5731 40.945 83.0606 41.3518C82.8662 41.5171 82.7103 41.7229 82.6039 41.9549C82.4975 42.1868 82.4431 42.4392 82.4446 42.6944C82.4337 42.9009 82.4689 43.1072 82.5479 43.2983C82.6269 43.4894 82.7475 43.6605 82.901 43.799C83.2595 44.0819 83.7095 44.2229 84.1652 44.1952ZM93.2974 44.4514L95.095 44.0664V35.4466L93.1042 35.0644V32.8034H98.588L98.7546 34.832C99.0319 34.178 99.4644 33.6014 100.015 33.152C100.523 32.7516 101.153 32.5385 101.8 32.5486C102.008 32.5494 102.216 32.5644 102.423 32.5934C102.607 32.6165 102.79 32.653 102.969 32.7026L102.571 36.1186L101.031 36.0794C100.557 36.0614 100.087 36.1722 99.6702 36.4C99.3106 36.614 99.0242 36.9317 98.8484 37.3114V44.0664L100.646 44.4514V46.6998H93.2974V44.4514ZM109.929 29.3986V32.802H112.37V35.4354H109.929V42.5124C109.89 42.9264 110.009 43.3399 110.264 43.6688C110.381 43.7862 110.522 43.8777 110.677 43.9375C110.831 43.9973 110.997 44.024 111.163 44.016C111.388 44.0185 111.612 44.0087 111.836 43.9866C112.028 43.9652 112.245 43.9288 112.484 43.8774L112.805 46.5878C112.397 46.7134 111.981 46.8098 111.559 46.8762C111.117 46.9428 110.67 46.9751 110.223 46.9728C109.679 47.0083 109.134 46.9321 108.62 46.7489C108.107 46.5657 107.636 46.2793 107.237 45.9074C106.46 44.9606 106.085 43.7466 106.194 42.5264V35.4368H104.15V32.8034H106.194V29.4L109.929 29.3986ZM114.001 44.4528L115.798 44.0678V35.4466L113.807 35.0616V32.8006H119.291L119.458 34.7914C119.888 34.112 120.473 33.5444 121.166 33.1352C121.857 32.7375 122.642 32.5334 123.439 32.5444C124.051 32.5105 124.663 32.6115 125.231 32.8401C125.799 33.0687 126.31 33.4194 126.728 33.8674C127.613 35.0605 128.033 36.5352 127.91 38.0156V44.065L129.707 44.45V46.6998H122.542V44.4528L124.148 44.0678V38.031C124.219 37.3227 124.019 36.6137 123.588 36.0472C123.358 35.8385 123.088 35.6791 122.794 35.5787C122.5 35.4783 122.189 35.4391 121.88 35.4634C121.417 35.4559 120.959 35.5596 120.544 35.7658C120.151 35.9668 119.812 36.2598 119.556 36.6198V44.0692L121.072 44.4542V46.6998H114.001V44.4528ZM137.427 46.9728C136.535 47.013 135.645 46.8618 134.817 46.5296C133.988 46.1973 133.24 45.6916 132.623 45.0464C131.405 43.7121 130.759 41.9523 130.826 40.1464V39.6326C130.753 37.7824 131.359 35.9694 132.528 34.5338C133.086 33.8752 133.788 33.3532 134.58 33.0081C135.371 32.663 136.231 32.5039 137.094 32.543C137.901 32.4958 138.709 32.6232 139.462 32.9165C140.216 33.2098 140.897 33.6621 141.46 34.2426C142.547 35.5151 143.103 37.1566 143.014 38.8276V40.8702H134.718L134.693 40.9472C134.728 41.7843 135.053 42.5833 135.611 43.2082C135.895 43.5065 136.239 43.7401 136.622 43.893C137.004 44.0459 137.415 44.1146 137.826 44.0944C138.523 44.1123 139.22 44.0288 139.894 43.8466C140.518 43.6462 141.121 43.3816 141.691 43.057L142.706 45.3684C142.033 45.8719 141.28 46.2568 140.477 46.5066C139.493 46.8265 138.462 46.9831 137.427 46.97V46.9728ZM137.092 35.4396C136.774 35.429 136.458 35.496 136.172 35.6348C135.886 35.7736 135.637 35.98 135.449 36.2362C135.013 36.8551 134.756 37.5814 134.704 38.3362L134.743 38.4006H139.341V38.066C139.375 37.3853 139.178 36.713 138.781 36.1592C138.577 35.9137 138.318 35.7202 138.024 35.5946C137.731 35.469 137.412 35.4149 137.094 35.4368L137.092 35.4396ZM145.072 44.4556L146.87 44.0706V35.4466L144.876 35.0644V32.8034H150.36L150.527 34.832C150.804 34.178 151.236 33.6014 151.787 33.152C152.295 32.7516 152.925 32.5385 153.572 32.5486C153.78 32.5494 153.988 32.5644 154.195 32.5934C154.379 32.6165 154.562 32.653 154.741 32.7026L154.343 36.1186L152.803 36.0794C152.329 36.0614 151.859 36.1722 151.442 36.4C151.083 36.614 150.796 36.9317 150.62 37.3114V44.0664L152.418 44.4514V46.6998H145.069L145.072 44.4556Z" fill="white"/>
<path d="M52.5 55.2999H5.60001C2.89814 55.2999 0.700012 53.1018 0.700012 50.4V5.59995C0.700012 2.89808 2.89814 0.699951 5.60001 0.699951H52.5V55.2999Z" fill="white"/>
<path d="M5.6 1.4C3.28411 1.4 1.4 3.28411 1.4 5.6V50.4C1.4 52.7159 3.28411 54.6 5.6 54.6H51.8V1.4H5.6ZM5.6 0H53.2V56H5.6C2.5072 56 0 53.4928 0 50.4V5.6C0 2.5072 2.5072 0 5.6 0Z" fill="#0C8543"/>
<rect x="1" y="1" width="166" height="54" rx="7" stroke="white" stroke-width="2"/>
</svg>

<svg viewBox="0 0 168 56" fill="none" xmlns="http://www.w3.org/2000/svg"><path d="M51.8 0h110.6a5.6 5.6 0 0 1 5.6 5.6v44.8a5.6 5.6 0 0 1-5.6 5.6H51.8V0Z" fill="#0C8543"/><path d="M70.494 28a7.352 7.352 0 0 1 5.067 1.65 5.509 5.509 0 0 1 1.856 4.322 5.46 5.46 0 0 1-1.85 4.317 7.407 7.407 0 0 1-5.073 1.63h-3.153v4.149l2.004.385V46.7H61.6v-2.247l1.99-.385V30.646l-1.99-.38v-2.26h8.894V28Zm-3.153 9.029h3.153a3.1 3.1 0 0 0 2.38-.854 3.052 3.052 0 0 0 .798-2.177 3.179 3.179 0 0 0-.798-2.228 3.049 3.049 0 0 0-2.38-.88h-3.153v6.139Zm20.074 9.67a6.787 6.787 0 0 1-.27-.712 5.613 5.613 0 0 1-.18-.738 5.159 5.159 0 0 1-1.624 1.246 4.86 4.86 0 0 1-2.19.475 4.587 4.587 0 0 1-3.242-1.112 3.92 3.92 0 0 1-1.201-3.024 3.439 3.439 0 0 1 1.567-3.018 8.185 8.185 0 0 1 4.597-1.065h1.914V37.39a2.047 2.047 0 0 0-.578-1.554 2.38 2.38 0 0 0-1.708-.552 4.048 4.048 0 0 0-1.143.147 2.99 2.99 0 0 0-.809.353l-.245 1.483h-2.825l.013-3.08c.733-.487 1.525-.88 2.356-1.17a8.541 8.541 0 0 1 2.896-.474 6.594 6.594 0 0 1 4.2 1.26 4.312 4.312 0 0 1 1.612 3.602v6.344c.003.18.018.36.045.539l1.142.154V46.7h-4.327Zm-3.25-2.504a3.25 3.25 0 0 0 1.54-.365c.429-.215.799-.53 1.08-.919v-2.12h-1.913a2.614 2.614 0 0 0-1.811.56 1.748 1.748 0 0 0-.616 1.343A1.389 1.389 0 0 0 82.9 43.8c.359.283.809.424 1.264.396Zm9.132.256 1.798-.385v-8.62l-1.99-.382v-2.26h5.483l.167 2.028a4.37 4.37 0 0 1 1.26-1.68 2.812 2.812 0 0 1 1.785-.603 4.617 4.617 0 0 1 1.169.154l-.398 3.416-1.54-.04a2.629 2.629 0 0 0-1.36.321c-.36.214-.647.532-.823.911v6.755l1.798.385V46.7h-7.349V44.45ZM109.93 29.4v3.403h2.441v2.633h-2.441v7.077c-.039.414.08.828.335 1.157a1.186 1.186 0 0 0 .899.347c.225.003.449-.007.673-.03.192-.02.409-.057.648-.109l.321 2.71a8.974 8.974 0 0 1-1.246.29 8.67 8.67 0 0 1-1.336.096 3.997 3.997 0 0 1-2.986-1.066 4.674 4.674 0 0 1-1.043-3.38v-7.09h-2.044v-2.634h2.044V29.4l3.735-.001Zm4.072 15.054 1.797-.385v-8.621l-1.991-.385V32.8h5.484l.167 1.99a5.075 5.075 0 0 1 1.708-1.656 4.434 4.434 0 0 1 2.273-.59 4.181 4.181 0 0 1 3.289 1.322 6.113 6.113 0 0 1 1.182 4.149v6.049l1.797.385v2.25h-7.165v-2.247l1.606-.385V38.03a2.813 2.813 0 0 0-.56-1.984 2.276 2.276 0 0 0-1.708-.584 2.897 2.897 0 0 0-1.336.303 2.748 2.748 0 0 0-.988.854v7.45l1.516.384V46.7h-7.071v-2.247Zm23.426 2.52a6.254 6.254 0 0 1-4.804-1.927 6.89 6.89 0 0 1-1.797-4.9v-.513a7.601 7.601 0 0 1 1.702-5.1 5.645 5.645 0 0 1 4.566-1.99 5.621 5.621 0 0 1 4.366 1.7 6.525 6.525 0 0 1 1.554 4.585v2.042h-8.296l-.025.077c.035.837.36 1.636.918 2.261a2.859 2.859 0 0 0 2.215.886 7.217 7.217 0 0 0 2.068-.247 9.508 9.508 0 0 0 1.797-.79l1.015 2.311a7.378 7.378 0 0 1-2.229 1.139 9.48 9.48 0 0 1-3.05.463v.003Zm-.335-11.533a1.958 1.958 0 0 0-1.643.796 4.14 4.14 0 0 0-.745 2.1l.039.065h4.598v-.335a3.014 3.014 0 0 0-.56-1.907 2.011 2.011 0 0 0-1.687-.722l-.002.003Zm7.98 9.016 1.798-.385v-8.624l-1.994-.383v-2.26h5.484l.167 2.028a4.363 4.363 0 0 1 1.26-1.68 2.812 2.812 0 0 1 1.785-.603 4.617 4.617 0 0 1 1.169.154l-.398 3.416-1.54-.04a2.63 2.63 0 0 0-1.361.321 2.08 2.08 0 0 0-.822.911v6.755l1.798.385V46.7h-7.349l.003-2.244ZM52.5 55.3H5.6a4.906 4.906 0 0 1-4.9-4.9V5.6C.7 2.898 2.898.7 5.6.7h46.9v54.6Z" fill="#fff"/><path d="M5.6 1.4a4.205 4.205 0 0 0-4.2 4.2v44.8c0 2.316 1.884 4.2 4.2 4.2h46.2V1.4H5.6Zm0-1.4h47.6v56H5.6A5.6 5.6 0 0 1 0 50.4V5.6A5.6 5.6 0 0 1 5.6 0Z" fill="#0C8543"/><rect x="1" y="1" width="166" height="54" rx="7" stroke="#fff" stroke-width="2"/></svg>
